media/img/products/vpn/resource-center/thumbs_down_on.svg

<svg width="42" height="38" viewBox="0 0 42 38" fill="none" xmlns="http://www.w3.org/2000/svg">
<path d="M5.46009 24.8645H3.27605C1.46767 24.8645 0 23.3968 0 21.5884V4.11614C0 2.30776 1.46767 0.840088 3.27605 0.840088H5.46009C7.26847 0.840088 8.73615 2.30776 8.73615 4.11614V21.5884C8.73615 23.3968 7.26847 24.8645 5.46009 24.8645Z" fill="#0060DF"/>
<path d="M36.62 27.2167C40.2892 27.2167 42.8816 23.6218 41.7197 20.1405L37.2403 6.6999C36.5086 4.50495 34.4556 3.02417 32.1406 3.02417H13.1045V22.7307L17.8089 29.9053L20.0738 36.702C20.3271 37.4577 21.0347 37.9688 21.8341 37.9688H21.8406C24.0684 37.9688 25.8724 36.1626 25.8724 33.937V28.0226L26.6783 27.2167H36.62V27.2167Z" fill="#0060DF"/>
</svg>

<svg width="42" height="38" fill="none" xmlns="http://www.w3.org/2000/svg"><path d="M5.46 24.864H3.276A3.277 3.277 0 0 1 0 21.588V4.116A3.277 3.277 0 0 1 3.276.84H5.46a3.277 3.277 0 0 1 3.276 3.276v17.472a3.277 3.277 0 0 1-3.276 3.276ZM36.62 27.217c3.67 0 6.262-3.595 5.1-7.076L37.24 6.7a5.375 5.375 0 0 0-5.1-3.676H13.106v19.707l4.704 7.174 2.265 6.797c.253.756.96 1.267 1.76 1.267h.007a4.032 4.032 0 0 0 4.031-4.032v-5.914l.806-.806h9.942Z" fill="#0060DF"/></svg>
